img/image/design/month-change.svg

<svg xmlns="http://www.w3.org/2000/svg" fill="none" viewBox="0.82 0.08 21.5 21.5">
<path d="M1.56665 7.82984L1.56665 5.82984C1.56665 3.06841 3.80523 0.829836 6.56665 0.829835L16.5667 0.829834C19.3281 0.829834 21.5667 3.06841 21.5667 5.82983L21.5667 15.8298C21.5667 18.5913 19.3281 20.8298 16.5667 20.8298L6.56665 20.8298C3.80523 20.8298 1.56665 18.5913 1.56665 15.8298L1.56665 13.8298" stroke="#2B3F6C" stroke-width="1.5" stroke-linecap="round"/>
<path d="M10.5667 7.83008L12.8595 10.123C13.2501 10.5135 13.2501 11.1467 12.8595 11.5372L10.5667 13.8301" stroke="#2B3F6C" stroke-width="1.5" stroke-linecap="round"/>
</svg>

<svg xmlns="http://www.w3.org/2000/svg" fill="none" viewBox="0.82 0.08 21.5 21.5"><path d="M1.567 7.83v-2a5 5 0 0 1 5-5h10a5 5 0 0 1 5 5v10a5 5 0 0 1-5 5h-10a5 5 0 0 1-5-5v-2" stroke="#2B3F6C" stroke-width="1.5" stroke-linecap="round"/><path d="m10.567 7.83 2.293 2.293a1 1 0 0 1 0 1.414l-2.293 2.293" stroke="#2B3F6C" stroke-width="1.5" stroke-linecap="round"/></svg>
